X:504
T: "Enttaeuschung"
N: Z1184
O: Europa, Mitteleuropa, Deutschland, Niederrhein
R: Liebes - Lied
M: 2/4
L: 1/16
K: Bb
B2 | c2A2B2B2 | dcA2B2
B2 | c2d2e2f2 | e2d2c2
c2 | c3de2c2 | d2e2f4
B2d2c4 | B2A2G2
F2 | B2c2d3B | c4B2

